shader_type canvas_item;
render_mode blend_mix;




void vertex() {
// ColorConstant:3
	vec4 n_out3p0 = vec4(0.187176, 0.187176, 0.187176, 1.000000);


// Output:0
	COLOR.rgb = vec3(n_out3p0.xyz);


}
